X:1
T:McQuillen's Squeezebox (B music)
C:Ralph Page
S:Anthony Bearon, June 2005
H:was Anon054
O:Chris Turner, November 2004
N:Usually in C
M:4/4
L:1/4
R:Reel
K:G
G A | B>c B A | G D G A | B>c B A | G2 F G |\
A>B c B | A D F G | A>B c B | A2 |]
